resources/svg/user-square.svg

<svg width="15" height="15" viewBox="0 0 15 15" fill="none" xmlns="http://www.w3.org/2000/svg">
<path fill-rule="evenodd" clip-rule="evenodd" d="M1.5 0C0.671573 0 0 0.671573 0 1.5V13.5C0 14.3284 0.671573 15 1.5 15H13.5C14.3284 15 15 14.3284 15 13.5V1.5C15 0.671573 14.3284 0 13.5 0H1.5ZM6.5 9C4.56713 9 3 10.5663 3 12.4994V13.5C3 13.7761 3.22386 14 3.5 14H11.5C11.7761 14 12 13.7761 12 13.5V12.4994C12 10.5663 10.4329 9 8.5 9H6.5ZM5 5.5C5 4.11929 6.11929 3 7.5 3C8.88071 3 10 4.11929 10 5.5C10 6.88071 8.88071 8 7.5 8C6.11929 8 5 6.88071 5 5.5Z" fill="black"/>
</svg>

<svg viewBox="0 0 15 15" fill="none" xmlns="http://www.w3.org/2000/svg" fill="currentColor"><path fill-rule="evenodd" clip-rule="evenodd" d="M1.5 0A1.5 1.5 0 000 1.5v12A1.5 1.5 0 001.5 15h12a1.5 1.5 0 001.5-1.5v-12A1.5 1.5 0 0013.5 0h-12zm5 9A3.5 3.5 0 003 12.5v1a.5.5 0 00.5.5h8a.5.5 0 00.5-.5v-1A3.5 3.5 0 008.5 9h-2zM5 5.5a2.5 2.5 0 115 0 2.5 2.5 0 01-5 0z" fill="currentColor"/></svg>
